X:1
T:Title
%%score { ( 1 3 ) | ( 2 4 ) }
L:1/8
M:4/4
K:F
V:1 treble nm="Grand Piano"
V:3 treble 
V:2 bass 
V:4 bass 
V:1
 z4 z2[Q:1/4=110] CC | [F,CF]2 [F,CF]2 G2 G2 | A2 c4 dc | A2 F2 B2 A2 |[M:3/4] [G,CEG]4 z2 | %5
[M:1/4][K:bass] [E,C][E,C] |[M:4/4][K:treble] [F,CF]2 [CF]2 [FG]2 [EG]2 | A2 c4 dc | %8
 A2 F2 [FA]2 [EG]2 |[M:3/4] F4 z2 |[M:1/4] cc |[M:4/4] [Fd]2 [Fd]2 [FB]2 [Fd]2 | d2 c4 cc | %13
 d2 f2 B2 A2 |[M:3/4] [EG]4 z2 |[M:1/4] [EA][EG] |[M:4/4] [DF]2 [DF]2 [EG]2 [EG]2 | A2 c4 dc | %18
 A2 [CF]2 C2 G2 |[M:3/4] F4 z2 |[M:1/4] AB |[M:4/4] cccd c2 [CFA][DF] | %22
 [CFA]2 [B,EG]2 [A,F]2 [EG][FA] | [GB][GB][GB][^FA] [GB]2 [Ed]2 | [Fc]6 z2 | %25
 cc[Ec][Ed] [Fc]2 [FA][FA] |[M:9/8] [FB]2 [Fc]- [Fc] [Fd]2- [Fd][Ff][Fd] |[M:4/4] ccAF A2 [EG]2 | %28
[M:3/4] F6 |] %29
V:2
 z4 z2 C,C, | A,,2 A,,2 [C,E,C]2 [C,E,C]2 | [F,C]2 [F,A,F]4 [F,B,F][F,A,F] | %3
 [F,CF]2 [A,C]2 [G,CE]2 [F,CF]2 |[M:3/4] C,4 z2 |[M:1/4] B,,B,, |[M:4/4] A,,2 A,,2 [C,C]2 [C,C]2 | %7
 [F,CF]2 [F,A,F]4 [F,B,F][F,A,F] | [F,C]2 [D,A,]2 [C,C]2 [C,B,]2 |[M:3/4] [F,A,]4 z2 | %10
[M:1/4] [F,A,F][F,A,F] |[M:4/4] [B,,B,]2 [B,,B,]2 [D,B,]2 [B,,B,]2 | %12
 [F,B,F]2 [F,A,F]4 [G,B,E][A,CF] | [B,F]2 [A,CF]2[K:bass] [G,CE]2 [F,CF]2 |[M:3/4] [C,C]4 z2 | %15
[M:1/4] [C,C][C,B,] |[M:4/4] [D,A,]2 [D,A,]2 [C,C]2 [C,C]2 | [F,CF]2 [F,A,F]4 [F,B,F][F,A,F] | %18
 [F,C]2 [A,,F,]2 [C,F,A,]2 [C,E,B,]2 |[M:3/4] [F,A,]4 z2 |[M:1/4] [F,CF][F,B,F] | %21
[M:4/4] [F,A,F][F,A,F][F,_A,F][F,A,F] [F,=A,F]2 A,,B,, | C,2 C,2 F,2 [C,C][C,C] | %23
 [C,C][C,C][C,C][C,C] [C,C]2 [C,B,]2 | [F,A,]2 F,G, A,G,[F,CF][F,B,F] | %25
 [F,A,F][F,A,][C,B,][C,B,] [F,A,]2 [_E,C][E,C] | %26
[M:9/8] [D,B,]2 [C,A,]- [C,A,] [B,,B,]2- [B,,B,][B,,D][B,,B,] | %27
[M:4/4][K:treble] [F,A,F][G,B,E][A,CF][B,D] [CF]2[K:bass] [C,B,]2 | %28
[M:3/4] F,2- [F,-B,][F,-B,] [F,A,]2 |] %29
V:3
 x8 | x8 | x8 | x8 |[M:3/4] x6 |[M:1/4][K:bass] x2 |[M:4/4][K:treble] x8 | x8 | x8 |[M:3/4] x6 | %10
[M:1/4] x2 |[M:4/4] x8 | x8 | x8 |[M:3/4] x6 |[M:1/4] x2 |[M:4/4] x8 | x8 | x8 |[M:3/4] x6 | %20
[M:1/4] x2 |[M:4/4] x8 | x8 | x8 | z2 A,B, CB,AB | x8 |[M:9/8] x9 |[M:4/4] x8 |[M:3/4] z2 DD C2 |] %29
V:4
 x8 | x8 | x8 | x8 |[M:3/4] x6 |[M:1/4] x2 |[M:4/4] x8 | x8 | x8 |[M:3/4] x6 |[M:1/4] x2 | %11
[M:4/4] x8 | x8 | x4[K:bass] x4 |[M:3/4] x6 |[M:1/4] x2 |[M:4/4] x8 | x8 | x8 |[M:3/4] x6 | %20
[M:1/4] x2 |[M:4/4] x8 | x8 | x8 | x8 | x8 |[M:9/8] x9 |[M:4/4][K:treble] x6[K:bass] x2 | %28
[M:3/4] A,2 z2 z2 |] %29

